X:75
T:Dundee Hornpipe, The
C:Joe Buchanan's Scottish Tome - Page 247.3
I:247 3
Z:Carl Allison
R:Hornpipe
L:1/8M:4/4
K:D
F>G | "D"A>FD>F "A/D"A>Fd>B | "D"A>dF>A "F#/D"f>ed>c | "G"B>dG>B "Em"g>ef>d | "G#"e>cd>B "A7"A2 F>G |
"D"A>FD>F "A/D"A>Fd>B | "D"A>dF>A "F#/D"f>ed>c | "G"B>dG>B "Em"g>ef>d | "Em"e>c"A7"d>B "D"d2 :|
d>e | "D"f>dc>d "G"B>d"F#"A>d | "D"F>Ad>e "F#/D"f>dc>d | "Em"e>Af>A "D7"g>Af>A | "Em"e>cd>B "A7"A2 d>e |
"D"f>dc>d "G"B>d"F#"A>d | "D"F>Ad>e "F#/D"f>dc>d | "A7"e>Af>A "A7"g>Af>A | "Em"e>c"A7"A>c "D"d2 :|

